public/technologies/docker_icon.svg

<svg width="128" height="128" viewBox="0 0 128 128" fill="none" xmlns="http://www.w3.org/2000/svg">
<path d="M127.963 0H0.0375C0.0167893 0 0 0.0167893 0 0.0375V127.963C0 127.983 0.0167893 128 0.0375 128H127.963C127.983 128 128 127.983 128 127.963V0.0375C128 0.0167893 127.983 0 127.963 0Z" fill="#066DA5"/>
<path d="M74.0001 61.25H84.5001V51.75H74.0001V61.25ZM61.5001 61.25H72.0001V51.75H61.5001V61.25ZM49.2501 61.25H59.7501V51.75H49.2501V61.25ZM37.0001 61.25H47.2501V51.75H37.0001V61.25ZM24.5001 61.25H35.0001V51.75H24.5001V61.25ZM37.0001 49.75H47.2501V40.25H37.0001V49.75ZM49.2501 49.75H59.7501V40.25H49.2501V49.75ZM61.5001 49.75H72.0001V40.25H61.5001V49.75ZM61.5001 38.25H72.0001V28.75H61.5001V38.25ZM118 57C118 57 113.5 52.75 104.25 54.25C103.25 47 95.5001 42.75 95.5001 42.75C95.5001 42.75 88.2501 51.5 93.5001 61.25C92.0001 62 89.5001 63 85.7501 63H17.0001C15.7501 67.75 15.7501 99.25 50.2501 99.25C75.0001 99.25 93.5001 87.75 102.25 66.75C115.25 67.75 118 57 118 57Z" fill="white"/>
</svg>

<svg xmlns="http://www.w3.org/2000/svg" width="128" height="128" fill="none"><path fill="#066DA5" d="M127.963 0H.038A.037.037 0 0 0 0 .037v127.926c0 .02.017.037.037.037h127.926c.02 0 .037-.017.037-.037V.038a.038.038 0 0 0-.037-.038Z"/><path fill="#fff" d="M74 61.25h10.5v-9.5H74v9.5Zm-12.5 0H72v-9.5H61.5v9.5Zm-12.25 0h10.5v-9.5h-10.5v9.5Zm-12.25 0h10.25v-9.5H37v9.5Zm-12.5 0H35v-9.5H24.5v9.5ZM37 49.75h10.25v-9.5H37v9.5Zm12.25 0h10.5v-9.5h-10.5v9.5Zm12.25 0H72v-9.5H61.5v9.5Zm0-11.5H72v-9.5H61.5v9.5ZM118 57s-4.5-4.25-13.75-2.75c-1-7.25-8.75-11.5-8.75-11.5s-7.25 8.75-2 18.5C92 62 89.5 63 85.75 63H17c-1.25 4.75-1.25 36.25 33.25 36.25 24.75 0 43.25-11.5 52-32.5 13 1 15.75-9.75 15.75-9.75Z"/></svg>
